!!!OTL: Abschied.
!!!OTL-incipit:TRAURIG SEHEN WIR UNS AN
!!!COM: C. G. F. Weyse
!!!ARE: Europa, Mitteleuropa, Deutschland
!!!SCT: F0480
!!!TXL: @@DE
!!!YEM: Copyright 1995, estate of Helmut Schaffrath.
**kern	**text
*ICvox	*
*clefG2	*
*M3/4	*
*k[f#]	*
*G:	*
=1	=1
!LO:TX:a:t=Langſam.	!
{8d	1._Trau-
8g	-rig
4g	ſe-
4b/	-hen
=2	=2
16aL	wir
16gJ	.
16f#L	uns
16gJ	.
4a	an,
4r}	.
=3	=3
{8b/	ach-
8cc/	-ten
4dd/	nicht
4ee/	des
=4	=4
8dd/L	Wei-
8ccJ	.
4b/	-nes.
4r}	.
=5	=5
{8dd/	Je-
8a	-der
4a	ſchlägt
4b/	die
=6	=6
16dd/L	Au-
16ccJ	.
16cc/L	-gen
16bJ	.
4b/	nie-
4a}	-der,
=7	=7
{8dd^/	und
8a	der
4a	ho-
4b/	-hen
=8	=8
16dd/L	Freunden
16ccJ	.
16cc/L	.
16bJ	.
4b/	Lie-
4a}	-der
=9	=9
{4.dd/	ſchal-
8cc/	-let
16cc/L	heu-
16bJ	.
16aL	-te
16gJ	.
=10	=10
(>4g	kei-
8b/L	.
8aJ)	.
4g}	-nes.
==	==
!!!AGN: Studenten - Lied, Abschied
!!!ONB: ESAC (Essen Associative Code) Database: FINK
!!!AMT: simple triple
!!!AIN: vox
!!!EED: Helmut Schaffrath
!!!EEV: 1.0
!!!RDF**kern: > = above
!!Text: J. M. Miller
!!!GTL: Studentenlieder
!!!source: Musikalischer Hausschatz der Deutschen. Eine Sammlung von über 1000 Liedern und Gesängen mit Singstimmen und Klavierbegleitung. Leipzig, Litterarisches Verlags-Haus.
!!!page: 304
!!!URL-scan: https://www.digitale-sammlungen.de/en/view/bsb11144622?page=328,329
!!!ENC: Anna Maria Matuszewska
!!!EEV: 2024/08/09
*-	*-
